svgs/pincredible.svg

<svg width="192" height="192" viewBox="0 0 192 192" fill="none" xmlns="http://www.w3.org/2000/svg">
<path d="M95.3246 80.4825H89.2456H101.403H95.3246ZM95.3246 80.4825V110.877H101.403H89.2456" stroke="black" stroke-width="6" stroke-linecap="round" stroke-linejoin="round"/>
<path d="M33.1842 110.877V98.7193M33.1842 98.7193V80.4825H44.7456C48.0593 80.4825 50.7456 83.1688 50.7456 86.4825V92.7193C50.7456 96.033 48.0593 98.7193 44.7456 98.7193H33.1842Z" stroke="black" stroke-width="6" stroke-linecap="round" stroke-linejoin="round"/>
<path d="M159.491 80.4825V110.202H157.465L141.254 80.4825H139.228V110.877" stroke="black" stroke-width="6" stroke-linecap="round" stroke-linejoin="round"/>
<path d="M19 75V117.035C19 120.349 21.6863 123.035 25 123.035H58.9298C62.2435 123.035 64.9298 120.349 64.9298 117.035V75C64.9298 71.6863 62.2435 69 58.9298 69H25C21.6863 69 19 71.6863 19 75Z" stroke="black" stroke-width="6" stroke-linejoin="round"/>
<path d="M127.07 75V117.035C127.07 120.349 129.756 123.035 133.07 123.035H167C170.314 123.035 173 120.349 173 117.035V75C173 71.6863 170.314 69 167 69H133.07C129.756 69 127.07 71.6863 127.07 75Z" stroke="black" stroke-width="6" stroke-linejoin="round"/>
<path d="M73.0351 75V117.035C73.0351 120.349 75.7214 123.035 79.0351 123.035H112.965C116.279 123.035 118.965 120.349 118.965 117.035V75C118.965 71.6863 116.279 69 112.965 69H79.0351C75.7214 69 73.0351 71.6863 73.0351 75Z" stroke="black" stroke-width="6" stroke-linejoin="round"/>
</svg>

<svg width="192" height="192" viewBox="0 0 192 192" fill="none" xmlns="http://www.w3.org/2000/svg"><path d="M95.325 80.483h-6.08 12.158-6.078Zm0 0v30.394h6.078-12.157M33.184 110.877V98.719m0 0V80.483h11.562a6 6 0 0 1 6 6v6.236a6 6 0 0 1-6 6H33.184ZM159.491 80.483v29.719h-2.026l-16.211-29.72h-2.026v30.395" stroke="#000" stroke-width="6" stroke-linecap="round" stroke-linejoin="round"/><path d="M19 75v42.035a6 6 0 0 0 6 6h33.93a6 6 0 0 0 6-6V75a6 6 0 0 0-6-6H25a6 6 0 0 0-6 6ZM127.07 75v42.035a6 6 0 0 0 6 6H167a6 6 0 0 0 6-6V75a6 6 0 0 0-6-6h-33.93a6 6 0 0 0-6 6ZM73.035 75v42.035a6 6 0 0 0 6 6h33.93a6 6 0 0 0 6-6V75a6 6 0 0 0-6-6h-33.93a6 6 0 0 0-6 6Z" stroke="#000" stroke-width="6" stroke-linejoin="round"/></svg>
